icons/layers-17.svg

<svg width="16" height="17" viewBox="0 0 16 17" fill="none" xmlns="http://www.w3.org/2000/svg">
<path fill-rule="evenodd" clip-rule="evenodd" d="M7.75619 2.22409C7.90975 2.14731 8.0905 2.14731 8.24405 2.22409L13.6985 4.95131C13.8833 5.0437 14 5.23257 14 5.43917C14 5.64576 13.8833 5.83463 13.6985 5.92703L8.24405 8.65424C8.0905 8.73102 7.90975 8.73102 7.75619 8.65424L2.30176 5.92703C2.11697 5.83463 2.00024 5.64576 2.00024 5.43917C2.00024 5.23257 2.11697 5.0437 2.30176 4.95131L7.75619 2.22409ZM3.76534 5.43917L8.00012 7.55656L12.2349 5.43917L8.00012 3.32177L3.76534 5.43917Z" fill="#272431"/>
<path d="M2.0577 10.6497C2.19242 10.3802 2.52006 10.271 2.78949 10.4057L8 13.011L13.2105 10.4057C13.4799 10.271 13.8076 10.3802 13.9423 10.6497C14.077 10.9191 13.9678 11.2467 13.6984 11.3814L8.24393 14.1087C8.09037 14.1854 7.90963 14.1854 7.75607 14.1087L2.30163 11.3814C2.0322 11.2467 1.92298 10.9191 2.0577 10.6497Z" fill="#272431"/>
<path d="M2.78949 7.67849C2.52006 7.54377 2.19242 7.65298 2.0577 7.92242C1.92298 8.19186 2.0322 8.51949 2.30163 8.65421L7.75607 11.3814C7.90963 11.4582 8.09037 11.4582 8.24393 11.3814L13.6984 8.65421C13.9678 8.51949 14.077 8.19186 13.9423 7.92242C13.8076 7.65298 13.4799 7.54377 13.2105 7.67849L8 10.2837L2.78949 7.67849Z" fill="#272431"/>
</svg>

<svg xmlns="http://www.w3.org/2000/svg" width="16" height="17" viewBox="0 0 16 17"><path fill-rule="evenodd" d="M7.756 2.224a.545.545 0 01.488 0l5.454 2.727a.545.545 0 010 .976L8.244 8.654a.545.545 0 01-.488 0L2.302 5.927a.545.545 0 010-.976l5.454-2.727zM3.766 5.44L8 7.557l4.235-2.118L8 3.322 3.765 5.439z"/><path d="M2.058 10.65a.545.545 0 01.731-.244L8 13.01l5.21-2.605a.545.545 0 01.488.975l-5.454 2.73a.546.546 0 01-.488 0l-5.454-2.73a.545.545 0 01-.244-.731z"/><path d="M2.79 7.678a.545.545 0 10-.488.976l5.454 2.727a.545.545 0 00.488 0l5.454-2.727a.545.545 0 00-.488-.976L8 10.284 2.79 7.678z"/></svg>
